img/share_twitter.svg

<?xml version="1.0" encoding="utf-8"?>
<!-- Generator: Adobe Illustrator 15.0.0, SVG Export Plug-In . SVG Version: 6.00 Build 0)  -->
<!DOCTYPE svg PUBLIC "-//W3C//DTD SVG 1.1//EN" "http://www.w3.org/Graphics/SVG/1.1/DTD/svg11.dtd">
<svg version="1.1" id="Layer_1" xmlns="http://www.w3.org/2000/svg" xmlns:xlink="http://www.w3.org/1999/xlink" x="0px" y="0px"
	 width="25px" height="25px" viewBox="0 0 25 25" enable-background="new 0 0 25 25" xml:space="preserve">
<path fill="#01FAB8" d="M17.444,8.653c-0.01-0.005-0.021-0.017-0.031-0.027c-0.616-0.549-1.341-0.812-2.174-0.781l-0.025-0.056
	c0.005-0.005,0.01-0.005,0.016-0.005c0.756-0.165,1.202-0.334,1.336-0.519c0.047-0.149-0.01-0.231-0.175-0.251
	c-0.38,0.046-0.729,0.123-1.043,0.241c0.396-0.241,0.55-0.411,0.462-0.499c-0.391,0.01-0.812,0.201-1.254,0.576
	c0.164-0.268,0.227-0.412,0.186-0.438c-0.211,0.139-0.396,0.288-0.555,0.447c-0.335,0.355-0.602,0.684-0.808,0.982l-0.011,0.025
	c-0.529,0.817-0.898,1.639-1.12,2.478l-0.082,0.062l-0.015,0.015c-0.319-0.38-0.699-0.699-1.156-0.957
	c-0.54-0.333-1.173-0.652-1.902-0.96C8.296,8.596,7.489,8.272,6.672,8.02c-0.005,0.869,0.442,1.562,1.331,2.066v0.015
	c-0.313-0.006-0.617,0.041-0.91,0.129c0.057,0.807,0.658,1.362,1.799,1.67l-0.005,0.015c-0.446-0.025-0.817,0.124-1.104,0.432
	c0.375,0.699,1.038,1.033,1.999,1.008c-0.19,0.092-0.339,0.193-0.437,0.309c-0.175,0.174-0.231,0.381-0.175,0.615
	c0.205,0.355,0.575,0.52,1.12,0.494l0,0l0.031,0.036c-0.006,0.005-0.011,0.011-0.016,0.015c-0.94,0.926-2.076,1.342-3.408,1.255
	l-0.02,0.011c-0.812-0.006-1.681-0.375-2.621-1.115c0.945,1.294,2.199,2.229,3.752,2.816c1.777,0.561,3.557,0.601,5.329,0.123h0.03
	c1.723-0.474,3.182-1.445,4.385-2.914c0.555-0.771,0.904-1.506,1.043-2.21c0.899,0.031,1.547-0.216,1.948-0.74l-0.011-0.016
	c-0.298,0.102-0.884,0.072-1.752-0.098v-0.093c0-0.004,0-0.004,0.005,0c0.95-0.103,1.511-0.395,1.69-0.879
	c-0.663,0.247-1.315,0.251-1.963,0.021C18.596,10.132,18.175,9.356,17.444,8.653z"/>
</svg>

<?xml version="1.0" encoding="UTF-8" standalone="no"?>
<!-- Created with Inkscape (http://www.inkscape.org/) -->

<svg
   xmlns:dc="http://purl.org/dc/elements/1.1/"
   xmlns:cc="http://creativecommons.org/ns#"
   xmlns:rdf="http://www.w3.org/1999/02/22-rdf-syntax-ns#"
   xmlns:svg="http://www.w3.org/2000/svg"
   xmlns="http://www.w3.org/2000/svg"
   version="1.1"
   width="25"
   height="25"
   viewBox="0 0 25 25"
   id="Layer_1"
   xml:space="preserve"><metadata
   id="metadata9"><rdf:RDF><cc:Work
       rdf:about=""><dc:format>image/svg+xml</dc:format><dc:type
         rdf:resource="http://purl.org/dc/dcmitype/StillImage" /><dc:title></dc:title></cc:Work></rdf:RDF></metadata><defs
   id="defs7" />
<path
   d="M 17.444,8.653 C 17.434,8.648 17.423,8.636 17.413,8.626 16.797,8.077 16.072,7.814 15.239,7.845 L 15.214,7.789 C 15.219,7.784 15.224,7.784 15.23,7.784 15.986,7.619 16.432,7.45 16.566,7.265 16.613,7.116 16.556,7.034 16.391,7.014 16.011,7.06 15.662,7.137 15.348,7.255 15.744,7.014 15.898,6.844 15.81,6.756 15.419,6.766 14.998,6.957 14.556,7.332 14.72,7.064 14.783,6.92 14.742,6.894 14.531,7.033 14.346,7.182 14.187,7.341 13.852,7.696 13.585,8.025 13.379,8.323 l -0.011,0.025 c -0.529,0.817 -0.898,1.639 -1.12,2.478 l -0.082,0.062 -0.015,0.015 C 11.832,10.523 11.452,10.204 10.995,9.946 10.455,9.613 9.822,9.294 9.093,8.986 8.296,8.596 7.489,8.272 6.672,8.02 6.667,8.889 7.114,9.582 8.003,10.086 v 0.015 C 7.69,10.095 7.386,10.142 7.093,10.23 7.15,11.037 7.751,11.592 8.892,11.9 L 8.887,11.915 C 8.441,11.89 8.07,12.039 7.783,12.347 c 0.375,0.699 1.038,1.033 1.999,1.008 -0.19,0.092 -0.339,0.193 -0.437,0.309 -0.175,0.174 -0.231,0.381 -0.175,0.615 0.205,0.355 0.575,0.52 1.12,0.494 l 0,0 0.031,0.036 c -0.006,0.005 -0.011,0.011 -0.016,0.015 -0.94,0.926 -2.076,1.342 -3.408,1.255 L 6.877,16.09 C 6.065,16.084 5.196,15.715 4.256,14.975 c 0.945,1.294 2.199,2.229 3.752,2.816 1.777,0.561 3.557,0.601 5.329,0.123 h 0.03 C 15.09,17.44 16.549,16.469 17.752,15 c 0.555,-0.771 0.904,-1.506 1.043,-2.21 0.899,0.031 1.547,-0.216 1.948,-0.74 l -0.011,-0.016 c -0.298,0.102 -0.884,0.072 -1.752,-0.098 v -0.093 c 0,-0.004 0,-0.004 0.005,0 0.95,-0.103 1.511,-0.395 1.69,-0.879 -0.663,0.247 -1.315,0.251 -1.963,0.021 -0.116,-0.853 -0.537,-1.629 -1.268,-2.332 z"
   id="path3"
   style="fill:#ffffff" />
</svg>
